svgs/sharp-light/ban-smoking.svg

<svg xmlns="http://www.w3.org/2000/svg" viewBox="0 0 512 512"><!--! Font Awesome Pro 6.6.0 by @fontawesome - https://fontawesome.com License - https://fontawesome.com/license (Commercial License) Copyright 2024 Fonticons, Inc. --><path d="M86.7 109.3L201.4 224l32 32 32 32 32 32L402.7 425.3C363.4 459.4 312.1 480 256 480C132.3 480 32 379.7 32 256c0-56.1 20.6-107.4 54.7-146.7zM278.6 256L384 256l0 32-73.4 0-32-32zm64 64l57.4 0 16 0 0-16 0-64 0-16-16 0-153.4 0L109.3 86.7C148.6 52.6 199.9 32 256 32c123.7 0 224 100.3 224 224c0 56.1-20.6 107.4-54.7 146.7L342.6 320zM256 512A256 256 0 1 0 256 0a256 256 0 1 0 0 512zM288 96l-32 0 0 16c0 26.5 21.5 48 48 48l32 0c8.8 0 16 7.2 16 16l0 16 32 0 0-16c0-26.5-21.5-48-48-48l-32 0c-8.8 0-16-7.2-16-16l0-16zM220.1 288L128 288l0-32 60.1 0-32-32L112 224l-16 0 0 16 0 64 0 16 16 0 140.1 0-32-32z"/></svg>

<svg xmlns="http://www.w3.org/2000/svg" viewBox="0 0 512 512"><!--! Font Awesome Pro 6.4.2 by @fontawesome - https://fontawesome.com License - https://fontawesome.com/license (Commercial License) Copyright 2023 Fonticons, Inc. --><path d="M86.7 109.3L201.4 224l32 32 32 32 32 32L402.7 425.3C363.4 459.4 312.1 480 256 480C132.3 480 32 379.7 32 256c0-56.1 20.6-107.4 54.7-146.7zM278.6 256H384v32H310.6l-32-32zm64 64H400h16V304 240 224H400 246.6L109.3 86.7C148.6 52.6 199.9 32 256 32c123.7 0 224 100.3 224 224c0 56.1-20.6 107.4-54.7 146.7L342.6 320zM256 512A256 256 0 1 0 256 0a256 256 0 1 0 0 512zM288 96H256v16c0 26.5 21.5 48 48 48h32c8.8 0 16 7.2 16 16v16h32V176c0-26.5-21.5-48-48-48H304c-8.8 0-16-7.2-16-16V96zM220.1 288H128V256h60.1l-32-32H112 96v16 64 16h16H252.1l-32-32z"/></svg>
